!!!OTL: Die Bluthochzeit Es fuhr ein Pfalzgraf ueber den Rhein,
!!!ARE: Europa, Mitteleuropa, Deutschland (BRD), Rheinprovinz, Siebengebirge
!!!YOR: 2, S. 157
!!    1860 aufgezeichnet
!!!SCT: Q0046
!!!YEM: Copyright 1995, estate of Helmut Schaffrath.
**kern
*ICvox
*Ivox
*M4/4
*k[b-e-]
*g:
{8d
=1
4.g
8a
4.b-
8a
=2
8g
8a
8b-
8cc
4dd
8r}
{8dd
=3
4dd
8cc
8b-
4.a
8dd
=4
4dd
8cc
8b-
4a
8r}
{8a
=5
4.dd
8ee
4.ffn
8ee
=6
4dd
8cc
8b-
4a
8r}
{8dd
=7
8ee-
8dd
8cc
8b-
4a
4dd
=8
4b-
8.a
16g
4g
8r}
==
!!!AGN: Ballade, Entfuehrung, Mord, Vergeltung
!!!ONB: ESAC (Essen Associative Code) Database: BALLADE
!!!AMT: simple quadruple
!!!AIN: vox
!!!EED: Helmut Schaffrath
!!!EEV: 1.0
*-
